assets/Carrot/Flat/carrot_flat.svg

<svg width="32" height="32" viewBox="0 0 32 32" fill="none" xmlns="http://www.w3.org/2000/svg">
<path d="M28.9024 8.36125L28.8924 8.37125C30.1024 9.83125 30.0224 12.0013 28.6524 13.3813C27.2024 14.8413 24.8424 14.8413 23.3824 13.3813C22.7452 12.7441 22.3851 11.9352 22.3045 11.1033L20.4995 12.9083L19.0853 11.4941L20.8307 9.74869C20.0483 9.64382 19.2939 9.29271 18.6924 8.69125C17.2324 7.24125 17.2324 4.88125 18.6924 3.42125C20.0324 2.08125 22.1524 1.97125 23.6124 3.11125L23.6324 3.09125C25.0824 1.63125 27.4424 1.64125 28.9024 3.09125C30.3624 4.54125 30.3624 6.90125 28.9024 8.36125Z" fill="#00D26A"/>
<path d="M4.64244 29.8912L20.3924 24.7912C24.9024 23.3312 26.2724 17.6212 22.9224 14.2712L17.7224 9.07123C14.3724 5.72123 8.66244 7.10123 7.20244 11.6012L2.10244 27.3512C1.59244 28.9212 3.07244 30.4012 4.64244 29.8912Z" fill="#FF822D"/>
<path d="M12.3726 19.4112C12.8626 18.9212 12.8626 18.1312 12.3726 17.6312L6.99256 12.2512L6.12256 14.9312L10.5926 19.4012C11.0826 19.9012 11.8826 19.9012 12.3726 19.4112Z" fill="#FF6723"/>
<path d="M8.59254 23.9613C8.10254 24.4513 8.10254 25.2413 8.59254 25.7413L10.7625 27.9113L13.4425 27.0413L10.3625 23.9613C9.87254 23.4712 9.08254 23.4712 8.59254 23.9613Z" fill="#FF6723"/>
<path d="M16.2526 18.9812C15.7626 18.4812 15.7626 17.6912 16.2526 17.2012C16.7426 16.7112 17.5326 16.7112 18.0326 17.2112L23.4626 22.6412C22.9626 23.3012 22.3226 23.8612 21.5626 24.2912L16.2526 18.9812Z" fill="#FF6723"/>
</svg>

<svg xmlns="http://www.w3.org/2000/svg" width="32" height="32" fill="none"><path fill="#00D26A" d="m28.902 8.361-.01.01a3.733 3.733 0 0 1-.24 5.01 3.718 3.718 0 0 1-5.27 0 3.72 3.72 0 0 1-1.078-2.278L20.5 12.908l-1.415-1.414 1.746-1.745a3.708 3.708 0 0 1-2.139-1.058 3.718 3.718 0 0 1 0-5.27 3.728 3.728 0 0 1 4.92-.31l.02-.02c1.45-1.46 3.81-1.45 5.27 0a3.718 3.718 0 0 1 0 5.27Z"/><path fill="#FF822D" d="m4.642 29.891 15.75-5.1c4.51-1.46 5.88-7.17 2.53-10.52l-5.2-5.2c-3.35-3.35-9.06-1.97-10.52 2.53l-5.1 15.75c-.51 1.57.97 3.05 2.54 2.54Z"/><path fill="#FF6723" d="M12.373 19.411c.49-.49.49-1.28 0-1.78l-5.38-5.38-.87 2.68 4.47 4.47c.49.5 1.29.5 1.78.01ZM8.593 23.961c-.49.49-.49 1.28 0 1.78l2.17 2.17 2.68-.87-3.08-3.08a1.25 1.25 0 0 0-1.77 0ZM16.253 18.981c-.49-.5-.49-1.29 0-1.78s1.28-.49 1.78.01l5.43 5.43c-.5.66-1.14 1.22-1.9 1.65l-5.31-5.31Z"/></svg>
